X: 152
T: Missa De beata virgine / Gloria
N: Derived from Rue1035b-Missa_De_beata_virgine-Gloria.krn
C: Pierre de la Rue
%%abc-version 2.0
%%abcx-abcm2ps-target-version 5.9.1 (29 Sep 2008)
%%abc-creator hum2abc beta
%%abcx-conversion-date 2019/02/17 08:01:16
%%abc-edited-by Jesse Rodin
%%abc-edited-by Chris Gage 06-04-2012
%%abcx-initial-encoding-date 2012/06/04/
%%humdrum-veritas 3002182078
%%humdrum-veritas-data 2742957916
%%linebreak <none>
%%barnumbers 0
L: 1/4
M: 2/1
Q: 1/2=120
%%staves [1 2 3 4]
V: 1 clef=treble
V: 2 clef=treble-8
V: 3 clef=treble-8
V: 4 clef=bass
K: C
[V:1] d4e4 | 
[V:2] g6g2 | 
[V:3] z8 | 
[V:4] z8 | 
[V:1] B3cd4 | 
[V:2] g4f4 | 
[V:3] z8 | 
[V:4] z8 | 
[V:1] d4G4 | 
[V:2] g6f2 | 
[V:3] d4e4 | 
[V:4] G,6G,2 | 
[V:1] z4A4 | 
[V:2] d2e2f2d2- | 
[V:3] B3cd4 | 
[V:4] G,4F,4 | 
[V:1] B3AB2c2- | 
[V:2] d2g3fed | 
[V:3] d4G4 | 
[V:4] G,4E,4 | 
[V:1] cBAGA4 | 
[V:2] c8 | 
[V:3] z4A4 | 
[V:4] F,4F,4 | 
[V:1] G8 | 
[V:2] z4g4 | 
[V:3] B3AB2c2- | 
[V:4] G,4z4 | 
[V:1] c8 | 
[V:2] e4f4 | 
[V:3] cBAGA4 | 
[V:4] z8 | 
[V:1] B4G4 | 
[V:2] g3fd2e2 | 
[V:3] G8 | 
[V:4] z2G,4E,2 | 
[V:1] A4E3D | 
[V:2] A3Bcdc2- | 
[V:3] z8 | 
[V:4] F,2D,2C,3B,, | 
[V:1] EFG3^FFE | 
[V:2] cBG2A4 | 
[V:3] z8 | 
[V:4] C,2E,2D,4 | 
[V:1] G8- | 
[V:2] e8 | 
[V:3] c8 | 
[V:4] C,8 | 
[V:1] G8 | 
[V:2] d4e4 | 
[V:3] B4G4 | 
[V:4] z2G,4E,2 | 
[V:1] z8 | 
[V:2] c2d2G2c2- | 
[V:3] A4E3D | 
[V:4] F,2D,2C,3B,, | 
[V:1] z8 | 
[V:2] cBG2A4 | 
[V:3] E^FG3^F^FE | 
[V:4] C,2E,2D,4 | 
[V:1] d4B3A | 
[V:2] G4g4 | 
[V:3] G8 | 
[V:4] z8 | 
[V:1] c4d4 | 
[V:2] e3df4 | 
[V:3] z4d4 | 
[V:4] z8 | 
[V:1] z8 | 
[V:2] g8 | 
[V:3] B3Ac4 | 
[V:4] G,4E,3D, | 
[V:1] z2d2d3c | 
[V:2] z4z2g2 | 
[V:3] d8 | 
[V:4] F,4G,4 | 
[V:1] B2A2c2B2- | 
[V:2] g3fe2d2 | 
[V:3] z8 | 
[V:4] z8 | 
[V:1] BAd4^c2 | 
[V:2] f3ge4 | 
[V:3] z8 | 
[V:4] z8 | 
[V:1] d8 | 
[V:2] d4z4 | 
[V:3] z2d2d3c | 
[V:4] z4z2G,2 | 
[V:1] z8 | 
[V:2] z8 | 
[V:3] B2A2c2B2- | 
[V:4] G,3F,E,2D,2 | 
[V:1] z8 | 
[V:2] z4g4 | 
[V:3] BAd4^c2 | 
[V:4] F,2G,2E,4 | 
[V:1] z4d4 | 
[V:2] f6ed | 
[V:3] d8 | 
[V:4] D,8 | 
[V:1] B2c3BAG | 
[V:2] edcBA2a2- | 
[V:3] z8 | 
[V:4] z8 | 
[V:1] F2G2A4 | 
[V:2] agg4f2 | 
[V:3] z4d4 | 
[V:4] z4D,4 | 
[V:1] G4z4 | 
[V:2] g3fedcB | 
[V:3] B2c3BAG | 
[V:4] E,4C,2F,2- | 
[V:1] z8 | 
[V:2] AGg3^f^fe | 
[V:3] F2G2A4 | 
[V:4] F,G,E,2D,4 | 
[V:1] z2d2e2d2 | 
[V:2] g4z2g2 | 
[V:3] G8 | 
[V:4] G,8 | 
[V:1] cBe3dd2- | 
[V:2] a2g2f2d2 | 
[V:3] z8 | 
[V:4] z8 | 
[V:1] d2^c2d4 | 
[V:2] e4d4 | 
[V:3] z4z2d2 | 
[V:4] z8 | 
[V:1] z8 | 
[V:2] z8 | 
[V:3] e2d2cBe2- | 
[V:4] z2G,2A,2G,2 | 
[V:1] z8 | 
[V:2] z4G4 | 
[V:3] edd4^c2 | 
[V:4] F,2D,2E,4 | 
[V:1] z8 | 
[V:2] A4B4 | 
[V:3] d4z2d2 | 
[V:4] D,8 | 
[V:1] G4A4 | 
[V:2] c3BA4 | 
[V:3] e4f4 | 
[V:4] z8 | 
[V:1] B4c4- | 
[V:2] G4c3d | 
[V:3] g3fedcB | 
[V:4] z8 | 
[V:1] c2B2A4 | 
[V:2] efg3^f^fe | 
[V:3] A2G2d4 | 
[V:4] z8 | 
[V:1] G3ABcd2- | 
[V:2] g4z4 | 
[V:3] G2g3fd2 | 
[V:4] z8 | 
[V:1] d2^c2d4 | 
[V:2] z8 | 
[V:3] e4d4 | 
[V:4] z4z2G,2 | 
[V:1] z8 | 
[V:2] z2d2e2f2 | 
[V:3] z8 | 
[V:4] A,2B,2C2A,2 | 
[V:1] z8 | 
[V:2] g4c4 | 
[V:3] z2d2e2f2 | 
[V:4] G,2B,2A,4 | 
[V:1] z2d2e2f2 | 
[V:2] d2B2c2d2 | 
[V:3] g3fe2d2 | 
[V:4] G,4z4 | 
[V:1] g6f2 | 
[V:2] G4z4 | 
[V:3] g3fe2d2 | 
[V:4] z8 | 
[V:1] e2d2c2B2 | 
[V:2] z2d2e2g2- | 
[V:3] c2B2A2G2 | 
[V:4] z8 | 
[V:1] A4G2A2 | 
[V:2] gef2g2d2- | 
[V:3] d3cB2A2 | 
[V:4] z2D,2E,2F,2 | 
[V:1] B2G2B2A2- | 
[V:2] dBc2d2A2 | 
[V:3] G4F4 | 
[V:4] G,2E,2D,2F,2 | 
[V:1] AGG4^F2 | 
[V:2] B2c2d4 | 
[V:3] G4A4 | 
[V:4] E,4D,4 | 
[V:1] G8- | 
[V:2] B6G2 | 
[V:3] G8 | 
[V:4] z4D4- | 
[V:1] G8 | 
[V:2] G8 | 
[V:3] d6c2 | 
[V:4] D2C2B,2A,2 | 
[V:1] z8 | 
[V:2] z8 | 
[V:3] B2A2G4 | 
[V:4] G,3F,E,2D,2 | 
[V:1] z8 | 
[V:2] z8 | 
[V:3] c6Bc | 
[V:4] C,4F,4- | 
[V:1] d6c2 | 
[V:2] z4g4- | 
[V:3] d8 | 
[V:4] F,2E,F,G,4 | 
[V:1] B2A2G4 | 
[V:2] g2f2e2d2 | 
[V:3] z8 | 
[V:4] z8 | 
[V:1] c6Bc | 
[V:2] c4f4- | 
[V:3] z8 | 
[V:4] z8 | 
[V:1] d4d4 | 
[V:2] f2efg4 | 
[V:3] d4g4- | 
[V:4] z8 | 
[V:1] g6f2 | 
[V:2] z8 | 
[V:3] g2f2e2d2 | 
[V:4] G,4C4- | 
[V:1] e2d2c2B2 | 
[V:2] z4z2g2 | 
[V:3] c2d2e4 | 
[V:4] C2B,2A,2G,2 | 
[V:1] A2d3^ccB | 
[V:2] a2g2a4 | 
[V:3] f2d2e4 | 
[V:4] F,2_B,2A,4 | 
[V:1] d8 | 
[V:2] f6ef | 
[V:3] d8 | 
[V:4] D,4z2D,2 | 
[V:1] z8 | 
[V:2] gfedc4 | 
[V:3] G4A4 | 
[V:4] E,4F,4 | 
[V:1] z4G4 | 
[V:2] z2d2e4 | 
[V:3] B4c3B | 
[V:4] G,4z4 | 
[V:1] A4B4 | 
[V:2] f4g3f | 
[V:3] A4G2d2 | 
[V:4] z4G,4 | 
[V:1] c3BA2G2 | 
[V:2] edc6 | 
[V:3] c2A3FGA | 
[V:4] A,3G,F,2E,2 | 
[V:1] F2G3^FFE | 
[V:2] d4c2d2 | 
[V:3] _B2G2A4 | 
[V:4] D,4z2D,2 | 
[V:1] G8 | 
[V:2] B2G2g4 | 
[V:3] G8 | 
[V:4] E,4E,4 | 
[V:1] z4A4 | 
[V:2] f8 | 
[V:3] d6A2 | 
[V:4] D,8 | 
[V:1] G2F2G4 | 
[V:2] z8 | 
[V:3] c2d2B4 | 
[V:4] z8 | 
[V:1] A4z4 | 
[V:2] z4e4 | 
[V:3] A4z4 | 
[V:4] z2A,4E,2 | 
[V:1] z8 | 
[V:2] d2c2d4 | 
[V:3] z4A4 | 
[V:4] G,2A,2F,4 | 
[V:1] z2G2A2B2- | 
[V:2] e8 | 
[V:3] B2c3BG2 | 
[V:4] E,4z4 | 
[V:1] BAA4^G2 | 
[V:2] z8 | 
[V:3] A4B4 | 
[V:4] z8 | 
[V:1] A4z4 | 
[V:2] z2c2d2e2- | 
[V:3] A4z4 | 
[V:4] z2A,2B,2A,2 | 
[V:1] G4c4 | 
[V:2] edd4c2 | 
[V:3] z4z2A2 | 
[V:4] B,4A,4 | 
[V:1] B2A2G4 | 
[V:2] d4z4 | 
[V:3] G2A2B4 | 
[V:4] z8 | 
[V:1] A8 | 
[V:2] c4f4 | 
[V:3] A8 | 
[V:4] z4D,4 | 
[V:1] z8 | 
[V:2] e2d2^c4 | 
[V:3] z8 | 
[V:4] C,2D,2E,4 | 
[V:1] z4f4 | 
[V:2] d4a4- | 
[V:3] z4d4 | 
[V:4] D,8 | 
[V:1] e2d2^c3B | 
[V:2] a2a2a4 | 
[V:3] c2d2e4 | 
[V:4] z4A,4 | 
[V:1] d4z2B2 | 
[V:2] f3edcd2- | 
[V:3] d8- | 
[V:4] _B,6A,G, | 
[V:1] A2G2^F3E | 
[V:2] d2B2A4 | 
[V:3] d8 | 
[V:4] F,2G,2D,4 | 
[V:1] G8 | 
[V:2] G8 | 
[V:3] z4d4 | 
[V:4] G,4z4 | 
[V:1] z8 | 
[V:2] z8 | 
[V:3] e4f4 | 
[V:4] G,4A,4 | 
[V:1] z8 | 
[V:2] z8 | 
[V:3] g6e2 | 
[V:4] B,4C4- | 
[V:1] z8 | 
[V:2] z8 | 
[V:3] e4f4- | 
[V:4] C2A,2A,4 | 
[V:1] z8 | 
[V:2] z8 | 
[V:3] f2d2d4 | 
[V:4] B,6G,2 | 
[V:1] z8 | 
[V:2] z8 | 
[V:3] e6d2 | 
[V:4] G,4A,4- | 
[V:1] z8 | 
[V:2] z8 | 
[V:3] c2BAB4 | 
[V:4] A,4G,4 | 
[V:1] z8 | 
[V:2] z8 | 
[V:3] A2d3ccB | 
[V:4] F,2D,2E,4 | 
[V:1] z8 | 
[V:2] z8 | 
[V:3] d3cA2B2 | 
[V:4] D,2G,2F,2G,2- | 
[V:1] z8 | 
[V:2] z8 | 
[V:3] G2g3^f^fe | 
[V:4] G,A,B,G,A,4 | 
[V:1] z8 | 
[V:2] z8 | 
[V:3] g8- | 
[V:4] G,8 | 
[V:1] z8 | 
[V:2] G4c4- | 
[V:3] g8- | 
[V:4] C,6D,2 | 
[V:1] z8 | 
[V:2] c2BAB2c2 | 
[V:3] g8 | 
[V:4] E,2F,2G,2A,2 | 
[V:1] G8 | 
[V:2] d4e4- | 
[V:3] G4c4- | 
[V:4] B,4C4 | 
[V:1] G4G4 | 
[V:2] e4d4 | 
[V:3] c2BAB2c2 | 
[V:4] C,4G,4- | 
[V:1] G8 | 
[V:2] B4c4- | 
[V:3] d4e4- | 
[V:4] G,4C,3D, | 
[V:1] G4A4 | 
[V:2] c2B2A4 | 
[V:3] e4d4 | 
[V:4] E,F,G,4^F,2 | 
[V:1] B4G4 | 
[V:2] G2d2e2g2- | 
[V:3] B4c4 | 
[V:4] G,4z4 | 
[V:1] A4B3c | 
[V:2] g^f^feg4- | 
[V:3] A4G4 | 
[V:4] z4G,4 | 
[V:1] ded4^c2 | 
[V:2] g4e4 | 
[V:3] B4c4 | 
[V:4] G,2G,2A,4 | 
[V:1] d8 | 
[V:2] f4g4- | 
[V:3] A4G4 | 
[V:4] D,4G,4 | 
[V:1] B4c4 | 
[V:2] g4e4 | 
[V:3] d4c4 | 
[V:4] G,2G,2A,4 | 
[V:1] A4G2B2- | 
[V:2] f4g4- | 
[V:3] d3cBAG2 | 
[V:4] D,4G,4 | 
[V:1] Bcd3^ccB | 
[V:2] g2_b2a4 | 
[V:3] g3fe4 | 
[V:4] G,2G,2A,4 | 
[V:1] d8- | 
[V:2] f6d2 | 
[V:3] d8 | 
[V:4] D,8 | 
[V:1] d8 | 
[V:2] d4g4- | 
[V:3] z8 | 
[V:4] G,8 | 
[V:1] z8 | 
[V:2] g2fgf4- | 
[V:3] d8 | 
[V:4] _B,8 | 
[V:1] z8 | 
[V:2] f2efe4- | 
[V:3] c8 | 
[V:4] A,8 | 
[V:1] z8 | 
[V:2] e2ded4- | 
[V:3] B4A4- | 
[V:4] G,4F,4 | 
[V:1] g8 | 
[V:2] d2^cd^c2d^c | 
[V:3] A2GFG4 | 
[V:4] E,8 | 
[V:1] f8 | 
[V:2] d6A2 | 
[V:3] A4a4 | 
[V:4] D,8 | 
[V:1] e4d4- | 
[V:2] c4d4 | 
[V:3] g4f4 | 
[V:4] z8 | 
[V:1] d2^cBc4 | 
[V:2] A4a4 | 
[V:3] e8 | 
[V:4] A,8 | 
[V:1] d6B2 | 
[V:2] f4d2g2- | 
[V:3] d8 | 
[V:4] _B,6G,2 | 
[V:1] B4c4 | 
[V:2] gfedc4 | 
[V:3] e8 | 
[V:4] G,4A,4 | 
[V:1] A4z2d2- | 
[V:2] z2d3cd2 | 
[V:3] f6d2 | 
[V:4] F,4D,4 | 
[V:1] dcd2B3G | 
[V:2] B3GG4 | 
[V:3] d8 | 
[V:4] z2G,3F,G,2 | 
[V:1] G4z4 | 
[V:2] g6f2 | 
[V:3] e6d2 | 
[V:4] E,3C,C,3D, | 
[V:1] G4c4 | 
[V:2] e2d2c3d | 
[V:3] c2B2A4 | 
[V:4] E,F,G,4^F,2 | 
[V:1] B2d4c2 | 
[V:2] e2d3Bc2 | 
[V:3] G6A2 | 
[V:4] G,2B,4A,2 | 
[V:1] B2A2G4 | 
[V:2] d4G4 | 
[V:3] B2d3^c^cB | 
[V:4] G,2F,2E,4 | 
[V:1] F6ED | 
[V:2] A4B4- | 
[V:3] d4z4 | 
[V:4] D,4D4- | 
[V:1] d6c2 | 
[V:2] B2c2d4- | 
[V:3] G6A2 | 
[V:4] D2C2B,2A,2 | 
[V:1] B2A2G4 | 
[V:2] d4G4 | 
[V:3] B2d3^c^cB | 
[V:4] G,2F,2E,4 | 
[V:1] F8- | 
[V:2] A2F2_B4 | 
[V:3] d8- | 
[V:4] D,8- | 
[V:1] F8 ||  
[V:2] A8 ||  
[V:3] d8 ||  
[V:4] D,8 ||  
[V:1]  [K:C] [M:2/1]z8 | 
[V:2]  [K:C] [M:2/1]f8 | 
[V:3]  [K:C] [M:2/1]z8 | 
[V:4]  [K:C] [M:2/1]z8 | 
[V:1] z8 | 
[V:2] e4f4 | 
[V:3] z8 | 
[V:4] z8 | 
[V:1] z8 | 
[V:2] d4d4 | 
[V:3] f8 | 
[V:4] z8 | 
[V:1] z8 | 
[V:2] c4d4- | 
[V:3] e4f4 | 
[V:4] z8 | 
[V:1] A8 | 
[V:2] d2e2f2d2 | 
[V:3] d4d4 | 
[V:4] D,8 | 
[V:1] A4A4 | 
[V:2] e4f4 | 
[V:3] c4d4- | 
[V:4] A,4D,4 | 
[V:1] A4A4 | 
[V:2] d8 | 
[V:3] d2e2f2d2 | 
[V:4] z4D,4 | 
[V:1] A8 | 
[V:2] c4d4- | 
[V:3] e4f4 | 
[V:4] A,4D,4 | 
[V:1] B6G2 | 
[V:2] d2B2B4- | 
[V:3] d4z4 | 
[V:4] G,6E,2 | 
[V:1] G8 | 
[V:2] B4z4 | 
[V:3] e6d2 | 
[V:4] E,8 | 
[V:1] z4G4 | 
[V:2] e6d2 | 
[V:3] c4B4 | 
[V:4] z4E,4 | 
[V:1] A4B4 | 
[V:2] c4B4 | 
[V:3] A4G4 | 
[V:4] F,4G,4 | 
[V:1] c8 | 
[V:2] ABcde2f2- | 
[V:3] cdefeAa2- | 
[V:4] A,8 | 
[V:1] c6A2 | 
[V:2] f2ed^c4 | 
[V:3] a2gfe4 | 
[V:4] A,8 | 
[V:1] A6F2 | 
[V:2] d8 | 
[V:3] f6d2 | 
[V:4] D,8- | 
[V:1] F6D2 | 
[V:2] z8 | 
[V:3] d8 | 
[V:4] D,8 | 
[V:1] [M:3/3]D8 | 
[V:2] [M:3/3](3B6G2A4 | 
[V:3] [M:3/3]z8 | 
[V:4] [M:3/3](3:2:2G,8F,4 | 
[V:1] z8 | 
[V:2] (3:2:2B4G8 | 
[V:3] (3:2:2d8c4 | 
[V:4] (3:2:2G,4E,8 | 
[V:1] z8 | 
[V:2] z8 | 
[V:3] (3:2:2d4B8 | 
[V:4] (3D,4G,4G,4 | 
[V:1] z8 | 
[V:2] z8 | 
[V:3] (3:2:2A8d4 | 
[V:4] (3F,6E,2F,4 | 
[V:1] z8 | 
[V:2] (3:2:2g8f4 | 
[V:3] (3d4c4d4 | 
[V:4] (3G,4E,4D,4 | 
[V:1] (3:2:2d8c4 | 
[V:2] (3:2:2g4e8 | 
[V:3] (3:2:2B8A4 | 
[V:4] (3:2:2G,8A,4 | 
[V:1] (3:2:2d4B8 | 
[V:2] (3d4g4g4 | 
[V:3] (3:2:2d8G4 | 
[V:4] (3:2:2B,4G,8 | 
[V:1] (3:2:2A8d4 | 
[V:2] (3f6e2f4 | 
[V:3] (3:2:4d6c2B2A2 | 
[V:4] (3:2:2D,8z4 | 
[V:1] (3:2:2d8c4 | 
[V:2] (3:2:2g4e8 | 
[V:3] (3G4g4e4 | 
[V:4] (3:2:2G,8A,4 | 
[V:1] (3:2:2d4B8 | 
[V:2] d4z4 | 
[V:3] (3f4d4g4 | 
[V:4] (3:2:2F,4G,8 | 
[V:1] [M:2/1]A4d4- | 
[V:2] [M:2/1]d6c2 | 
[V:3] [M:2/1]f8 | 
[V:4] [M:2/1]D,8 | 
[V:1] d2c2B2A2 | 
[V:2] B2A2G4 | 
[V:3] z4g4- | 
[V:4] G,6F,2 | 
[V:1] G8 | 
[V:2] z4c3d | 
[V:3] g2f2e2d2 | 
[V:4] E,2D,2C,4 | 
[V:1] z8 | 
[V:2] edf2g4 | 
[V:3] c4e2d2 | 
[V:4] C6B,2 | 
[V:1] z4c3d | 
[V:2] fefef2e2- | 
[V:3] c2B2c3A | 
[V:4] A,2G,2A,4 | 
[V:1] e2f2g4 | 
[V:2] edd4^c2 | 
[V:3] B2A4G2 | 
[V:4] G,2F,2E,4 | 
[V:1] f6ed | 
[V:2] d8 | 
[V:3] A2a4gf | 
[V:4] D,4D4 | 
[V:1] e2d4^c2 | 
[V:2] z4a4 | 
[V:3] gfede4 | 
[V:4] C2B,2A,4 | 
[V:1] d8 | 
[V:2] b2gabc'b2- | 
[V:3] z4g4 | 
[V:4] G,4z2G,2 | 
[V:1] z8 | 
[V:2] baa4^g2 | 
[V:3] f2e2d4 | 
[V:4] A,2C2B,4 | 
[V:1] z8 | 
[V:2] a2A2c4 | 
[V:3] c3defe2- | 
[V:4] A,4z2C,2 | 
[V:1] z8 | 
[V:2] B2A3Gg2 | 
[V:3] edd4^c2 | 
[V:4] D,2F,2E,4 | 
[V:1] z4d4 | 
[V:2] f4d4 | 
[V:3] d4f4 | 
[V:4] D,4z2D,2 | 
[V:1] c2B2A4 | 
[V:2] z8 | 
[V:3] e2d3cA2 | 
[V:4] E,2G,2F,4 | 
[V:1] G3ABcB2- | 
[V:2] z4g4 | 
[V:3] c2B2G4 | 
[V:4] E,4z2G,2 | 
[V:1] BAA4^G2 | 
[V:2] f2e2d4 | 
[V:3] z8 | 
[V:4] A,2C2B,4 | 
[V:1] A8- | 
[V:2] c3defe2- | 
[V:3] z4c4 | 
[V:4] A,8 | 
[V:1] A8- | 
[V:2] edd4^c2 | 
[V:3] d2f2e4 | 
[V:4] z4A,4 | 
[V:1] A8 | 
[V:2] d8 | 
[V:3] d4z4 | 
[V:4] D,4D4- | 
[V:1] z8 | 
[V:2] z8 | 
[V:3] d8 | 
[V:4] D2C2B,4- | 
[V:1] z8 | 
[V:2] d8 | 
[V:3] G4d4 | 
[V:4] B,2A,2G,3F, | 
[V:1] z8 | 
[V:2] G4d4 | 
[V:3] c4f4 | 
[V:4] E,4D,4 | 
[V:1] z8 | 
[V:2] c4f4 | 
[V:3] e4a4 | 
[V:4] z8 | 
[V:1] z8 | 
[V:2] e2d2c4 | 
[V:3] g2f2e4 | 
[V:4] z4A,4 | 
[V:1] z8 | 
[V:2] d4z2d2 | 
[V:3] d4f4 | 
[V:4] B,4D4 | 
[V:1] z8 | 
[V:2] e2g2f2e2- | 
[V:3] e3dc2B2- | 
[V:4] C3B,A,2G,2 | 
[V:1] z8 | 
[V:2] edd4^c2 | 
[V:3] BAA4G2 | 
[V:4] F,2D,2E,4 | 
[V:1] [M:3/1]z12 | 
[V:2] [M:3/1]d6z6 | 
[V:3] [M:3/1]A4d4c4 | 
[V:4] [M:3/1]D,6z6 | 
[V:1] [M:3/1]d8c4 | 
[V:2] z12 | 
[V:3] B4G4A4 | 
[V:4] z12 | 
[V:1] B4G4A4 | 
[V:2] z12 | 
[V:3] G4c6d2 | 
[V:4] z12 | 
[V:1] G4c6d2 | 
[V:2] z12 | 
[V:3] e4c4f4 | 
[V:4] z12 | 
[V:1] e6c2f4 | 
[V:2] z12 | 
[V:3] e4a4f4 | 
[V:4] z12 | 
[V:1] e4f6e2 | 
[V:2] z12 | 
[V:3] g4a4f4 | 
[V:4] z12 | 
[V:1] d6^c2c2B2 | 
[V:2] z12 | 
[V:3] g4e8 | 
[V:4] z12 | 
[V:1] [M:2/1]d8 | 
[V:2] [M:2/1]z4g4- | 
[V:3] [M:2/1]d8 | 
[V:4] [M:2/1]G,6A,2 | 
[V:1] z4G4 | 
[V:2] g2f2e4 | 
[V:3] z8 | 
[V:4] B,4C4 | 
[V:1] B6c2 | 
[V:2] d3cB2A2 | 
[V:3] G6A2 | 
[V:4] D4G,4- | 
[V:1] d4e4 | 
[V:2] G4g4 | 
[V:3] B4c4 | 
[V:4] G,2F,2E,4 | 
[V:1] f6ed | 
[V:2] f2d4cB | 
[V:3] d4f4- | 
[V:4] D,8 | 
[V:1] c2d3^ccB | 
[V:2] A2B2A3c | 
[V:3] f2d2f2e2- | 
[V:4] z4A,4 | 
[V:1] d4g4 | 
[V:2] B2A4G2 | 
[V:3] edd4^c2 | 
[V:4] G,2F,2E,4 | 
[V:1] f3ef2e2- | 
[V:2] A2a2a2g2 | 
[V:3] d4z4 | 
[V:4] D,4z4 | 
[V:1] edd4^c2 | 
[V:2] f4e4 | 
[V:3] z8 | 
[V:4] z8 | 
[V:1] d8 | 
[V:2] d8 | 
[V:3] z4g4- | 
[V:4] G,6F,2 | 
[V:1] z8 | 
[V:2] z8 | 
[V:3] g4f4 | 
[V:4] E,4D,2A,2- | 
[V:1] z8 | 
[V:2] z8 | 
[V:3] e3de2f2- | 
[V:4] A,G,A,B,CB,A,G, | 
[V:1] z4g4 | 
[V:2] z4g4 | 
[V:3] fed3^c^cB | 
[V:4] F,2G,2E,4 | 
[V:1] f3ef2e2- | 
[V:2] _b4a4 | 
[V:3] d4z4 | 
[V:4] D,4z4 | 
[V:1] edd4^c2 | 
[V:2] g2f2e4 | 
[V:3] z8 | 
[V:4] z8 | 
[V:1] d8- | 
[V:2] d8- | 
[V:3] z8 | 
[V:4] z4G,4- | 
[V:1] d8 | 
[V:2] d8 | 
[V:3] z4g4- | 
[V:4] G,2F,2G,4 | 
[V:1] z8 | 
[V:2] z8 | 
[V:3] g2f2g4 | 
[V:4] A,4G,3F, | 
[V:1] z8 | 
[V:2] z8 | 
[V:3] a4g4 | 
[V:4] D,2A,2B,2C2 | 
[V:1] z8 | 
[V:2] z8 | 
[V:3] z2d2e2f2 | 
[V:4] D4z2D,2 | 
[V:1] z8 | 
[V:2] z8 | 
[V:3] g6fe | 
[V:4] E,2F,2G,2A,2 | 
[V:1] z8 | 
[V:2] z8 | 
[V:3] d2f2e4 | 
[V:4] B,2D3^CCB, | 
[V:1] z8 | 
[V:2] z8 | 
[V:3] d4z4 | 
[V:4] D4z4 | 
[V:1] B8 | 
[V:2] d8 | 
[V:3] g8 | 
[V:4] G,8 | 
[V:1] c8 | 
[V:2] f8 | 
[V:3] a8 | 
[V:4] F,8 | 
[V:1] B6G2 | 
[V:2] d8- | 
[V:3] g8 | 
[V:4] G,8 | 
[V:1] A4B4 | 
[V:2] d8 | 
[V:3] f4g4 | 
[V:4] z4G,4 | 
[V:1] c3AA4- | 
[V:2] c8 | 
[V:3] e8 | 
[V:4] A,4C4 | 
[V:1] A4^G4 | 
[V:2] d8 | 
[V:3] d8 | 
[V:4] B,8 | 
[V:1] A8 | 
[V:2] e8 | 
[V:3] z4c4 | 
[V:4] A,8 | 
[V:1] z4A4 | 
[V:2] a8 | 
[V:3] f8 | 
[V:4] F,8 | 
[V:1] B8 | 
[V:2] g8 | 
[V:3] e4d4 | 
[V:4] G,8 | 
[V:1] c6A2 | 
[V:2] e8 | 
[V:3] c8 | 
[V:4] A,8 | 
[V:1] A8 ||  
[V:2] f8 ||  
[V:3] d8 ||  
[V:4] D,8 ||  
[V:1] [M:3/1]z12 | 
[V:2] [M:3/1]g6f2g2a2 | 
[V:3] [M:3/1]z12 | 
[V:4] [M:3/1]z12 | 
[V:1] d6c2d2e2 | 
[V:2] f2g3fe2d2c2- | 
[V:3] z12 | 
[V:4] z12 | 
[V:1] c3BA2G2A4 | 
[V:2] cde2f2g3^f^fe | 
[V:3] z12 | 
[V:4] z12 | 
[V:1] G2B3cd3^ccB | 
[V:2] g3fd2f2e4 | 
[V:3] z12 | 
[V:4] G,6F,2G,2A,2 | 
[V:1] d4z4z4 | 
[V:2] d4z4z4 | 
[V:3] d6c2d2e2 | 
[V:4] F,2G,3F,E,2D,2C,2- | 
[V:1] z12 | 
[V:2] z12 | 
[V:3] c3BA2G2A4 | 
[V:4] C,D,E,2F,2G,3^F,F,E, | 
[V:1] z12 | 
[V:2] d4g6f2 | 
[V:3] G2d3Be2c2d2 | 
[V:4] G,8z4 | 
[V:1] d4g6f2 | 
[V:2] g8a4 | 
[V:3] G8z4 | 
[V:4] z12 | 
[V:1] g2d2e2f3ec2 | 
[V:2] g6d2f3e | 
[V:3] z12 | 
[V:4] z12 | 
[V:1] d2e3dd4^c2 | 
[V:2] d2c2d4e4 | 
[V:3] z12 | 
[V:4] z12 | 
[V:1] d12 | 
[V:2] d12 | 
[V:3] z12 | 
[V:4] D,4G,6F,2 | 
[V:1] z12 | 
[V:2] z12 | 
[V:3] d4g6f2 | 
[V:4] G,8A,4 | 
[V:1] z12 | 
[V:2] z12 | 
[V:3] g2d2e2f3ec2 | 
[V:4] G,6D,2F,3E, | 
[V:1] z12 | 
[V:2] z12 | 
[V:3] d2e3dd4^c2 | 
[V:4] D,2C,2D,4E,4 | 
[V:1] d4B2c4BA | 
[V:2] z2d4c2e2f2 | 
[V:3] d4z4z4 | 
[V:4] D,4z4z4 | 
[V:1] G4z4z4 | 
[V:2] g4z4z4 | 
[V:3] z2G4F2A2B2 | 
[V:4] G,4E,2F,4E,D, | 
[V:1] z2G4F2A2B2 | 
[V:2] g4e2f4ed | 
[V:3] c4z4z4 | 
[V:4] C,4z4z4 | 
[V:1] c4z4z4 | 
[V:2] c4z4z4 | 
[V:3] z2A4G2B2c2 | 
[V:4] A,4F,2G,4F,E, | 
[V:1] z2A4G2B2c2 | 
[V:2] a4f2g4fe | 
[V:3] d4z4z4 | 
[V:4] D,4z4z4 | 
[V:1] d2f4e3ce2 | 
[V:2] d4a4g4- | 
[V:3] f3ed2c2e3f | 
[V:4] z2D4A,2C3B, | 
[V:1] dBd2c2e4d2- | 
[V:2] g2f2a3ge2g2 | 
[V:3] g2d2f2e2g3f | 
[V:4] G,2B,2A,2C4G,2 | 
[V:1] dBd2cAc2B2d2- | 
[V:2] f2d2f2e2g3f | 
[V:3] d2f4c2e2d2 | 
[V:4] _B,3A,F,2A,2G,2B,2- | 
[V:1] d2c3Ac2BGB2 | 
[V:2] d2f2e2c2e2d2 | 
[V:3] f3ec2e4B2 | 
[V:4] B,2F,2A,3G,E,2G,2 | 
[V:1] A2c4B3GB2 | 
[V:2] f3ec2e2d2B2 | 
[V:3] d2c2e3dB2d2- | 
[V:4] F,2A,4E,2G,3F, | 
[V:1] AFA2G3FDEFG | 
[V:2] d2c2e3dB2d2 | 
[V:3] d2A2c2B2d3c | 
[V:4] D,2F,2E,2G,4D,2 | 
[V:1] ABA3G/A/G3^FFE | 
[V:2] c2A2c2B2d4 | 
[V:3] A2c3BG2A4 | 
[V:4] F,3E,C,2E,2D,4 | 
[V:1] G12 |]  
[V:2] d12 |]  
[V:3] G12 |]  
[V:4] G,12 |]  



% FRACTION = 0.875BUT SHOULD BE 0
% FRACTION = 0.875BUT SHOULD BE 0
% FRACTION = 0.875BUT SHOULD BE 0
% FRACTION = 0.875BUT SHOULD BE 0
% FRACTION = 0.875BUT SHOULD BE 0
